X:1
T:24 Arie Antiche
T:Caro mio ben
T:Caro Mio Ben
T:(24 Arie Antiche) Arietta
T:Tommaso Giordani (1733-1806) misattributed to Giuseppe Giordani (Giordanello)(1744-1798) Alessandro Parisotti (1853-1913)
T:High voices
T:Creative Commons copyright waiver (CC0 1.0 Universal)
T:Creative Commons copyright waiver (CC0 1.0 Universal)
T:Creative Commons copyright waiver (CC0 1.0 Universal)
C:Tomasso Giordani (1766-1806)
Z:Creative Commons copyright waiver (CC0 1.0 Universal)
%%score 1 { ( 2 3 6 ) | ( 4 5 ) }
L:1/8
Q:1/4=60
M:4/4
K:Eb
V:1 treble nm="Voice"
V:2 treble nm="LARGHETTO"
V:3 treble 
V:6 treble 
V:4 bass 
V:5 bass 
V:1
"^Larghetto" z4[Q:1/4=49] | z8 | z8 | z8 |"^CANTO" z4!p! e2 d3/2 c/ | B4 c2 B3/2 A/ | G4 A2 G F | %7
w: ||||Ca- ro mio|ben, cre- di- mial|men, sen- za di|
 B4 (E2{FE} D) E | (G2 F2) z4 | z4 c2 B3/2 A/ | G4 A2 G F | (Be) (EA) (G2 F3/2) E/ | E4 z4 | z8 | %14
w: te lan- gui- sceil|cor,...... *|ca- ro mio|ben, sen- za di|te * lan- * gui- * sceil|cor.||
 z4!p![Q:1/4=54] B2 c[Q:1/4=60] d |!<(! c4 c2 d e[Q:1/4=62] | %16
w: Il tuo fe-|\- del so- spi- rao-|
[Q:1/4=58] d4!<)!!f![Q:1/4=52] !>!f2 e d | (c=A) (Be) d2 (c>B) | %18
w: gnor. Ces- sa cru-|del * tan- * to ri- *|
!<(! B4!<)![Q:1/4=49] !>!c2!>(! B3/2 A/ | G2!>)! z2 B2 A G | %20
w: gor! Ces- sa cru-|del tan- to ri-|
 (G2 F2)!f!"^rit."[Q:1/4=46] !>!e2[Q:1/4=42] =A[Q:1/4=40] A | %21
w: gor,........ * tan- to ri-|
"^rit." (B4!ppp![Q:1/4=49] e2) d3/2 c/ |!<(! B4 c2 B3/2 A/!<)! | G4!mf![Q:1/4=46] A2 G F | %24
w: gor! Ca- ro mio|ben, cre- di- mial|men, sen- za di|
 (Be) (EA)[Q:1/4=42] (G2 F3/2) E/ |[Q:1/4=46] E4!p![Q:1/4=48]{AB} c2 B3/2 A/ | %26
w: te _ lan- * gui- * sceil|cor, ca- ro mio|
 G4"^cresc."{AB} c2 B3/2 A/ | G2"^cresc." z2 e2[Q:1/4=46] d c | %28
w: ben, cre- di- mial-|men sen- za di|
!f![Q:1/4=39]!>(! (!fermata!B4!>)![Q:1/4=40]"^dim." e2)[Q:1/4=42] z2 |!p!!<(! G4 F3 E!<)! | E4 z4 | %31
w: te ...... *|lan- gui- sceil|cor.|
[Q:1/4=46] z8[Q:1/4=42] | z8 |] %33
w: ||
V:2
"_dolce" (!>![EGe]2 d>c | B4) (!>![Ac]2 [GB]>[FA] | G4) (!>!A2 (GF) | (Be) (E[FA]) !>!G2 F>E | %4
 [B,E]4)!p! ([EG]2 [EA]2 | B4) ([Ac]2 [GB]>[FA] | [EG]4) (A2 GF | B4) E4- | (E2 D2)!f! (!>!e2 d>c | %9
 [EB]4)!p! (!>![EAc]2 [GB]>[FA] | [EG]4) (!>![CEA]2 GF | B2) (A2 G2 F2 | .E)(Beg)!f! (!>!b2 a>g | %13
 [df])([Bdb][Be][Aea])!f! (!>!g2!>(! f>e | e)(BGE)!>)!!p! [B,FB](.[B,FB].[DFB].[DFB]) | %15
!<(! ([CFB][CFB][CF=A][CFA] [EFc][EFc][EAc][EAc]) | %16
 ([DFc]!<)![DFc][DFB][DFB]) ([FB][FB][F=A][FB]) | %17
 ([F=Ac][FAc][FB][EGB]!>(! [DFB][DFB][CFB]!>)![CEB] | [DFB])(DFB) (c2 B>A | [EG])((B,EG) B2 AG | %20
 [EG]2 .[DF]).B!f! (=A2 e2) | d(cB_A)!ppp! (G2 A2 |!<(! [EB])(B,EB) ([Ac]2 [GB]>[FA]!<)! | %23
 [EG])(CEG) ([CEA]2 GF | [B,EB]2 [CEA]2 G2 F2) |!<(! .E(GA!<)!B)!p! (.[DAc].[DAc].[FAB].[FAB]) | %26
 ([EGB][EGB]!>![EBe]!>![EBe])"_cresc." ([DAc][DAc][FAB][FAB]) | %27
 ([EGB][EGB]"_cresc."!>![EBe]!>![EBe]) ([EGe]!<(![EGe][EGd]!<)![EAc]) | [EB]4 z2 !tenuto![CEA]2 | %29
 ([B,EG]4 [A,F]4 | .[G,B,E])(Beg)!f! (!>!b2 a>g | fbea) !>!g2 (f>e | [GBe]4) z4 |] %33
V:3
 x2 [EA]2 | E4 E2 D2 | E4 [CE]2 D2 | E2 C2 E2 (ED) | x8 | E4 E2 D2 | x4 [CE]2 D2 | [B,E]4 =A,4 | %8
 B,4 [EG]2 [EA]2 | x6 D2 | x6 D2 | [B,E]2 [CE]2 (E3 D) | x4 [Be]2 [ce]2 | x4 [Be]2 ed | [GB]2 x6 | %15
 x8 | x8 | x8 | x4 [D_A]2 F2 | x4 E2 F2 | x4 E4 | [FB]2 z2 E2 E2 | x4 E2 D2 | x6 D2 | x4 E3 D | %25
 x8 | x8 | x8 | x8 | x4 E2 D2 | x4 ([Be]2 [ce]2 | d[Bd][Be][Ae]) [Be]2 e!ff!d | x8 |] %33
V:4
 E,2 F,2 | G,4 A,2 B,2 | C4 F,2 (B,A,) | G,2"^largamente" A,2 B,2 [B,,A,]2 | %4
 [E,G,]4"^dolce" (E,2 F,2 | G,4) (A,2 B,2 | C4) (F,2 B,A, | G,4) [C,F,]4 | (G,2 F,2) (E,2 F,2 | %9
 G,4) (A,2 B,2 | C4) (F,2 B,A, | G,2 A,2 B,2- [B,,A,B,]2) | [E,G,B,]4 (G,2 A,2 | %13
 B,)(A,G,C) (!>!B,2 B,,2 | E,4) (D,2 B,,2 | .F,,2) (F,2 =A,2 F,2 | .B,2) .B,,2 (!>!D2 CB, | %17
 E,2) (D,E, F,4) | B,4 (F,2 D,2 | E,2) z2 (G,2 A,2 | B,2 .B,,2)"^rit." (C,4 | %21
"^rit." B,,4) (E,,2 F,,2 | G,,4) (A,,2 B,,2 | C,4)!mf! (F,2 B,A, | G,2 A,2 B,4 | C4) (F,2 D,2 | %26
 E,2 G,2) (F,2 D,2 | E,2 G,2) ([C,C]2 [B,,B,][A,,A,] | [G,,G,]4) z2!p! !tenuto![A,,A,]2 | %29
 ([B,,B,]4 (B,,4) | E,4) ([G,,G,]2 [A,,A,]2 | [B,,B,][A,,A,][G,,G,][C,C])"^rit." ([B,,B,]2 B,,2) | %32
 !>!E,2 .E,,2 z4 |] %33
V:5
 x4 | x8 | x8 | x8 | x8 | x8 | x8 | x8 | B,,4 x4 | x8 | x8 | x8 | x8 | x8 | x8 | x8 | x8 | x8 | %18
 x8 | x8 | x8 | x8 | x8 | x8 | x8 | x8 | x8 | x8 | x8 | x8 | x8 | x8 | x8 |] %33
V:6
 x4 | x8 | x8 | x8 | x8 | x8 | x8 | x8 | x8 | x8 | x8 | x8 | x8 | x6 A2 | x8 | x8 | x8 | x8 | x8 | %19
 x8 | x8 | x8 | x8 | x8 | x8 | x8 | x8 | x8 | x8 | x8 | x8 | x6 A2 | x8 |] %33

